assets/images/ico_pdf.svg

<svg width="25" height="30" viewBox="0 0 25 30" fill="none" xmlns="http://www.w3.org/2000/svg">
<path d="M2.17969 24.7791V30H24.8344V6.27094L18.5634 0H2.17969V16.2309H0V24.7791H2.17969ZM19.0312 2.26312L22.5712 5.80219H19.0312V2.26312ZM3.11719 0.9375H18.0928V6.73969H23.8959V29.0625H3.11719V24.7791H22.5872V16.2309H3.11719V0.9375ZM0.9375 17.1684H21.6497V23.8416H0.9375V17.1684Z" fill="#929BA9"/>
<path d="M7.99793 18.1631H7.76824H5.90918V22.7775H6.7848V21.2869H7.81606L8.01855 21.2831C8.64949 21.2831 9.06856 21.1819 9.27574 20.9794C9.48293 20.7759 9.58699 20.3662 9.58699 19.7484C9.58699 19.1269 9.47824 18.7069 9.26074 18.4894C9.04324 18.2709 8.62231 18.1631 7.99793 18.1631ZM8.53699 20.4122C8.43012 20.5041 8.17793 20.5491 7.78137 20.5491H6.7848V18.8991H7.87043C8.24449 18.8991 8.47605 18.9459 8.56512 19.0387C8.65418 19.1325 8.69918 19.3734 8.69918 19.7634C8.69824 20.1056 8.64481 20.3212 8.53699 20.4122Z" fill="#929BA9"/>
<path d="M12.4133 18.1631H10.1445V22.7775H12.4405C13.168 22.7775 13.6367 22.6134 13.8439 22.2862C14.0511 21.9591 14.1552 21.2175 14.1552 20.0662C14.1552 19.3612 14.0248 18.8681 13.768 18.5859C13.5092 18.3028 13.0583 18.1631 12.4133 18.1631ZM13.0808 21.7509C12.958 21.9441 12.687 22.0406 12.268 22.0406H11.0202V18.9H12.3214C12.7292 18.9 12.9889 18.9919 13.0995 19.1766C13.2102 19.3612 13.2655 19.7944 13.2655 20.475C13.2655 21.1331 13.2036 21.5587 13.0808 21.7509Z" fill="#929BA9"/>
<path d="M14.7939 22.7775H15.6696V20.88H17.7386V20.1431H15.6696V18.9H17.8502V18.1631H14.7939V22.7775Z" fill="#929BA9"/>
</svg>

<svg width="25" height="30" fill="none" xmlns="http://www.w3.org/2000/svg"><path d="M2.18 24.78V30h22.654V6.27L18.564 0H2.18v16.23H0v8.55h2.18zM19.03 2.262l3.54 3.54h-3.54v-3.54zM3.117.938h14.976V6.74h5.803v22.323H3.117v-4.284h19.47v-8.548H3.117V.937zm-2.18 16.23H21.65v6.674H.938v-6.674z" fill="#929BA9"/><path d="M7.998 18.163H5.909v4.614h.876v-1.49h1.031l.203-.004c.63 0 1.05-.101 1.257-.304.207-.203.311-.613.311-1.23 0-.622-.109-1.042-.326-1.26-.218-.218-.639-.326-1.263-.326zm.539 2.25c-.107.091-.36.136-.756.136h-.996V18.9H7.87c.374 0 .606.047.695.14.09.093.134.334.134.724 0 .343-.054.558-.162.65zm3.876-2.25h-2.268v4.614h2.296c.727 0 1.196-.164 1.403-.49.207-.328.311-1.07.311-2.22 0-.706-.13-1.199-.387-1.481-.259-.283-.71-.423-1.355-.423zm.668 3.588c-.123.193-.394.29-.813.29H11.02V18.9h1.301c.408 0 .668.092.779.277.11.184.165.617.165 1.298 0 .658-.061 1.084-.184 1.276zm1.713 1.026h.876V20.88h2.069v-.737h-2.07V18.9h2.181v-.737h-3.056v4.614z" fill="#929BA9"/></svg>
